X: 11787
T: Elizabeth's
R: waltz
M: 3/4
K: Gmajor
Bc|d3e dB|g2 f2 e2|d2 B2 G2|E4 GA|B3c BG|
c2 B2 c2|d2 B2 d2|A4 Bc|d3e dB|g2 f2 e2|d2 B2 G2|
E2 G2 A2|B3c BG|c2 B2 A2|G6|G4:|
|:Bc|d3e dB|e2 g2 a2|b3a gd|e2 g2 e2|d3e dB|
G2 F2 G2|A6|A4 Bc|d3e dB|e2 g2 a2|b3a gd|
eg3 e2|d3e dB|c2 B2 A2|G6|G4:|

